!!!OTL: NUR LANGSAM VORAN
!!!ARE: Europa, Mitteleuropa, Deutschland
!!!SCT: Z0212
!!!YEM: Copyright 1995, estate of Helmut Schaffrath.
**kern
*ICvox
*Ivox
*M4/4
*k[]
*C:
{8e
8f
=1
4g
8g
8g
4g
4cc
=2
8cc
8a
8a
8a
4a}
{8f
8e
=3
4d
8d
8d
4g
4g
=4
8e
8f
8d
8e
4c}
{8f
8e
=5
4d
4d
4d
8e
8f
=6
4g
4g
4g}
{8f
8e
=7
4d
4d
4d
8e
8f
=8
4g
4g
4g}
{8e
8f
=9
4g
8g
8g
4g
4cc
=10
8cc
8a
8a
8a
4a}
{8f
8e
=11
4d
8d
8d
4g
4g
=12
8e
8f
8d
8e
4c}
==
!!!AGN: Soldaten - Lied (1813 - 1815) , Landsturm
!!!ONB: ESAC (Essen Associative Code) Database: ZUCCAL
!!!AMT: simple quadruple
!!!AIN: vox
!!!EED: Helmut Schaffrath
!!!EEV: 1.0
*-
